X: 40838
T: Tralee Gaol
R: polka
M: 2/4
K: Ddorian
|:AD DE/G/|A/B/A/G/ EG|AD DE/D/|C2 E/D/E/G/|
AD DE/G/|AG AB|c>A GE|D2 DE/G/:|
|:Ad dc/d/|ed cA|G2 c>d|cA AG|
Ad dc/d/|ed cA|GE/E/ cE|D2 DE/G/:|

